localPackages/DesignSystem/Sources/DesignSystem/Resources/Assets.xcassets/IconSet/ic-bookmark.imageset/ic-bookmark.svg

<svg width="24" height="24" viewBox="0 0 24 24" fill="none" xmlns="http://www.w3.org/2000/svg">
<g id="ic-bookmark">
<path id="Icon" fill-rule="evenodd" clip-rule="evenodd" d="M17.4 3H6.6C5.94519 3 5.54429 3.00117 5.24435 3.02567C5.10463 3.03709 5.02009 3.05143 4.96875 3.06352C4.94433 3.06927 4.92931 3.07409 4.92118 3.07699C4.91338 3.07977 4.91011 3.08144 4.90951 3.08175C4.76839 3.15365 4.65365 3.26839 4.58175 3.40951C4.58144 3.41011 4.57977 3.41338 4.57699 3.42118C4.57409 3.42931 4.56927 3.44433 4.56352 3.46875C4.55143 3.52009 4.53709 3.60463 4.52567 3.74435C4.50117 4.04429 4.5 4.44519 4.5 5.1V19.8862C4.5 20.0686 4.5001 20.2312 4.50074 20.3769C4.60421 20.2743 4.71927 20.1594 4.84825 20.0304L10.5999 14.2788C10.6035 14.2752 10.6074 14.2713 10.6117 14.267C10.6578 14.2207 10.7443 14.1339 10.832 14.0595C10.9413 13.9667 11.1462 13.8091 11.4438 13.7124C11.8053 13.5949 12.1947 13.5949 12.5562 13.7124C12.8538 13.8091 13.0587 13.9667 13.168 14.0595C13.2557 14.1339 13.3422 14.2207 13.3883 14.267C13.3926 14.2713 13.3965 14.2752 13.4001 14.2788L19.1518 20.0304C19.2807 20.1594 19.3958 20.2743 19.4993 20.3769C19.4999 20.2312 19.5 20.0686 19.5 19.8862V5.1C19.5 4.44519 19.4988 4.04429 19.4743 3.74435C19.4629 3.60463 19.4486 3.52009 19.4365 3.46875C19.4307 3.44433 19.4259 3.42931 19.423 3.42118C19.4202 3.41338 19.4186 3.41011 19.4183 3.40951C19.3463 3.26839 19.2316 3.15365 19.0905 3.08175C19.0899 3.08144 19.0866 3.07977 19.0788 3.07699C19.0707 3.07409 19.0557 3.06927 19.0313 3.06352C18.9799 3.05143 18.8954 3.03709 18.7556 3.02567C18.4557 3.00117 18.0548 3 17.4 3ZM3.24524 2.72852C3 3.20982 3 3.83988 3 5.1V19.8862C3 21.1766 3 21.8218 3.25517 22.1205C3.47657 22.3798 3.8087 22.5173 4.14856 22.4906C4.54025 22.4598 4.99647 22.0035 5.90891 21.0911L11.6606 15.3394C11.7794 15.2206 11.8388 15.1612 11.9073 15.1389C11.9675 15.1194 12.0325 15.1194 12.0927 15.1389C12.1612 15.1612 12.2206 15.2206 12.3394 15.3394L18.0911 21.0911C19.0035 22.0035 19.4598 22.4598 19.8514 22.4906C20.1913 22.5173 20.5234 22.3798 20.7448 22.1205C21 21.8218 21 21.1766 21 19.8862V5.1C21 3.83988 21 3.20982 20.7548 2.72852C20.539 2.30516 20.1948 1.96095 19.7715 1.74524C19.2902 1.5 18.6601 1.5 17.4 1.5H6.6C5.33988 1.5 4.70982 1.5 4.22852 1.74524C3.80516 1.96095 3.46095 2.30516 3.24524 2.72852Z" fill="#0F0F0F"/>
</g>
</svg>

<svg xmlns="http://www.w3.org/2000/svg" width="24" height="24" viewBox="0 0 24 24">
  <g class="ic-bookmark">
    <path fill-rule="evenodd" d="M17.4 3H6.6c-.655 0-1.056.001-1.356.026-.14.011-.224.025-.275.038a.45.45 0 0 0-.06.018.75.75 0 0 0-.332.34.45.45 0 0 0-.013.047 1.923 1.923 0 0 0-.038.275c-.025.3-.026.701-.026 1.356v15.276c.104-.102.22-.217.348-.346l5.752-5.75.012-.012c.046-.046.132-.133.22-.207.11-.093.314-.25.612-.348a1.8 1.8 0 0 1 1.112 0c.298.097.503.255.612.348.088.074.174.16.22.207l.012.012 5.752 5.751.347.347.001-.49V5.1c0-.655-.001-1.056-.026-1.356a1.92 1.92 0 0 0-.038-.275.461.461 0 0 0-.018-.06.75.75 0 0 0-.34-.332.447.447 0 0 0-.047-.013 1.924 1.924 0 0 0-.275-.038C18.456 3 18.055 3 17.4 3ZM3.245 2.729C3 3.209 3 3.839 3 5.1v14.786c0 1.29 0 1.936.255 2.235.222.259.554.396.894.37.391-.031.847-.488 1.76-1.4l5.752-5.752c.118-.118.178-.178.246-.2.06-.02.126-.02.186 0 .068.022.128.082.246.2l5.752 5.752c.912.912 1.369 1.369 1.76 1.4.34.026.672-.111.894-.37.255-.3.255-.944.255-2.235V5.1c0-1.26 0-1.89-.245-2.371a2.25 2.25 0 0 0-.983-.984C19.29 1.5 18.66 1.5 17.4 1.5H6.6c-1.26 0-1.89 0-2.371.245a2.25 2.25 0 0 0-.984.984Z" class="Icon"/>
  </g>
</svg>
